X:117
T:117 The Duke Of Cornwall's Reel
C:Aylmore MS
I:abc2nwc
M:C
L:1/8
K:D
^A|:D3F FEFA|D3F FE E2|D3F FEFA|BdBA F2EA:|
d2d2dAFA|d2d2dgfe|d2d2dAFA|BdBG F2F2:|
afaf gege|fdfd ec A2|afaf gege|fedc c2d2:|
Adfd efge|fdcd ec A2|Adfd efge|fdAc d2d2:|


